X:13
%%etbk:tnset id:5,pos:2,rep:3
%%etbk:site1 http://www.thesession.org/tunes/display/3065
T: East Clare
Z: Piano Box Version by Martin Fleischmann (www.boxplayer.ch)
M: 4/4
L: 1/8
R: Reel
K: Ddor
|: !2!D!3!E!1!F!3!A !5!d2 !4!c!3!A | !2!G!1!EEE E3!2!G | !3!A2 !5!d!4!c !5!d!4!c!3!A!4!B | !5!c!3!A!2!G!1!E !3!E!2!D!1!C!3!E |
!2!D!3!E!1!FA d2 cA | GEEE E3G | A2 dc dcAB |1 cAGE EDCE :|2 !5!cAG!1!E !2!E!1!DD2 :|
|: !5!a!4!g!3!e!2!d !1!c!2!d!3!e!2!d | !1!cc cd !3!e!4!gg2 | aged cded | !1!c!2!A!1!G!2!E !2!E!1!DD2 |
!3!edeg aged |  !2!d!1!c!2!AB !4!cAGc | !2!A!1!FFF !1!F!2!G!3!A!4!B | !5!cAG!1!E !2!E!1!DD2 :|


